symbols/web/cloud_sync/materialsymbolsoutlined/cloud_sync_wght600_48px.svg

<svg xmlns="http://www.w3.org/2000/svg" height="48" width="48"><path d="M8.4 40.4v-3.3h5.85q-3.2-2.45-5-5.475-1.8-3.025-1.8-7.425 0-5.35 3.275-9.9Q14 9.75 19.9 8.15v4.05q-3.55 1.15-6 4.45-2.45 3.3-2.45 7.55 0 3.05 1.3 5.55t4.25 4.4V28.5h3.3v11.9Zm22.1.75q-2.75 0-4.7-1.95-1.95-1.95-1.95-4.7 0-2.6 1.7-4.475 1.7-1.875 4.25-2.125.95-1.85 2.725-2.95 1.775-1.1 3.975-1.1 2.85 0 4.95 1.75t2.45 4.3h.1q2.15.15 3.65 1.75t1.5 3.8q0 2.3-1.65 4-1.65 1.7-4 1.7ZM36.35 22q-.55-2.45-1.825-4.425Q33.25 15.6 31.2 13.85v5.65h-3.35V7.6h11.9v3.3H33.9q2.45 2.15 4.275 5.125Q40 19 40.4 22ZM30.5 37.5h13q.85 0 1.425-.575.575-.575.575-1.425 0-.85-.575-1.425-.575-.575-1.425-.575H41V32q0-1.9-1.3-3.2-1.3-1.3-3.2-1.3-1.9 0-3.2 1.225Q32 29.95 32 31.5h-1.5q-1.25 0-2.125.875T27.5 34.5q0 1.25.875 2.125t2.125.875Zm6-5Z"/></svg>

<svg xmlns="http://www.w3.org/2000/svg" height="48" width="48"><path d="M30.5 41.15Q27.75 41.15 25.8 39.2Q23.85 37.25 23.85 34.5Q23.85 31.9 25.55 30.025Q27.25 28.15 29.8 27.9Q30.75 26.05 32.525 24.95Q34.3 23.85 36.5 23.85Q39.35 23.85 41.45 25.6Q43.55 27.35 43.9 29.9H44Q46.15 30.05 47.65 31.65Q49.15 33.25 49.15 35.45Q49.15 37.75 47.5 39.45Q45.85 41.15 43.5 41.15ZM30.5 37.5H43.5Q44.35 37.5 44.925 36.925Q45.5 36.35 45.5 35.5Q45.5 34.65 44.925 34.075Q44.35 33.5 43.5 33.5H41V32Q41 30.1 39.7 28.8Q38.4 27.5 36.5 27.5Q34.6 27.5 33.3 28.725Q32 29.95 32 31.5H30.5Q29.25 31.5 28.375 32.375Q27.5 33.25 27.5 34.5Q27.5 35.75 28.375 36.625Q29.25 37.5 30.5 37.5ZM8.4 40.4V37.1H14.25Q11.05 34.65 9.25 31.625Q7.45 28.6 7.45 24.2Q7.45 18.85 10.725 14.3Q14 9.75 19.9 8.15V12.2Q16.35 13.35 13.9 16.65Q11.45 19.95 11.45 24.2Q11.45 27.25 12.75 29.75Q14.05 32.25 17 34.15V28.5H20.3V40.4ZM36.35 22Q35.8 19.55 34.525 17.575Q33.25 15.6 31.2 13.85V19.5H27.85V7.6H39.75V10.9H33.9Q36.35 13.05 38.175 16.025Q40 19 40.4 22ZM36.5 32.5Q36.5 32.5 36.5 32.5Q36.5 32.5 36.5 32.5Q36.5 32.5 36.5 32.5Q36.5 32.5 36.5 32.5Q36.5 32.5 36.5 32.5Q36.5 32.5 36.5 32.5Q36.5 32.5 36.5 32.5Q36.5 32.5 36.5 32.5Q36.5 32.5 36.5 32.5Q36.5 32.5 36.5 32.5Q36.5 32.5 36.5 32.5Q36.5 32.5 36.5 32.5Z"/></svg>
